science/nature/A_graph_showing_the_difference_between_strong_and_weak_Allee_effects.svg

<svg xmlns="http://www.w3.org/2000/svg" width="300" height="600" viewBox="0 0 300 600"><desc>Produced by GNUPLOT 4.4 patchlevel 0</desc><g fill="none" color="#000" stroke="currentColor"><path d="M51 100.9h8.2"/><text transform="translate(43.3 105)" stroke="none" fill="#000" font-family="helvetica" font-size="11pt" text-anchor="end"><tspan>0</tspan></text><path d="M227.6 100.9v8.2"/><text transform="translate(227.6 129.6)" stroke="none" fill="#000" font-family="helvetica" font-size="11pt" text-anchor="middle"><tspan>K</tspan></text></g><path d="M51 100.9h229.6" fill="none" color="gray" stroke="currentColor"/><g fill="none" color="#000" stroke="currentColor"><path d="M51 43.3v115.3m0-115.3"/><text transform="rotate(-90 62.4 38.6)" stroke="none" fill="#000" font-family="helvetica" font-size="11pt" text-anchor="middle"><tspan>Proliferation rate (dN/dt)</tspan></text><text transform="translate(165.8 22.8)" stroke="none" fill="#000" font-family="Helvetica" font-size="20" text-anchor="middle"><tspan>Strong Allee Effect</tspan></text></g><a><path d="m51 100.9 2.3 1.5 2.3 1.2 2.4 1.1 2.3 1 2.3.8 2.3.6 2.3.5 2.4.4 2.3.2 2.3.1h2.3l2.3-.1 2.3-.2 2.4-.4 2.3-.4 2.3-.5 2.3-.6 2.3-.7 2.4-.8 2.3-.9 2.3-.9 2.3-1 2.3-1 2.4-1.1 2.3-1.1 2.3-1.2 2.3-1.2 2.3-1.3 2.4-1.3 2.3-1.3 2.3-1.3 2.3-1.3 2.3-1.3 2.4-1.4 2.3-1.3 2.3-1.3 2.3-1.3 2.3-1.3 2.3-1.2 2.4-1.2 2.3-1.2 2.3-1.2 2.3-1.1 2.3-1 2.4-1 2.3-.9 2.3-.9 2.3-.7 2.3-.7 2.4-.7 2.3-.5 2.3-.4 2.3-.4 2.3-.2 2.4-.1h2.3l2.3.1 2.3.2 2.3.4 2.4.5 2.3.7 2.3.7 2.3 1 2.3 1.1 2.3 1.3 2.4 1.4 2.3 1.6 2.3 1.8 2.3 1.9 2.3 2.2 2.4 2.3 2.3 2.6 2.3 2.7 2.3 3 2.3 3.1 2.4 3.4 2.3 3.6 2.3 3.9 2.3 4 2.3 4.4 2.4 4.5 2.3 4.8 2.3 5.1 2.3 5.3 2.3 5.6 2.4 5.9 2.3 6.1 1.8 5" fill="none" color="red" stroke="currentColor" stroke-width="2"/></a><g fill="none" color="#000" stroke="currentColor"><path d="M51 43.3v115.3m0 140.3h8.2"/><text transform="translate(43.3 303)" stroke="none" fill="#000" font-family="helvetica" font-size="11pt" text-anchor="end"><tspan>0</tspan></text><path d="M227.6 298.9v8.2"/><text transform="translate(227.6 327.6)" stroke="none" fill="#000" font-family="helvetica" font-size="11pt" text-anchor="middle"><tspan>K</tspan></text></g><path d="M51 298.9h229.6" fill="none" color="gray" stroke="currentColor"/><g fill="none" color="#000" stroke="currentColor"><path d="M51 241.3v115.3m0-115.3"/><text transform="rotate(-90 161.4 137.6)" stroke="none" fill="#000" font-family="helvetica" font-size="11pt" text-anchor="middle"><tspan>Proliferation rate (dN/dt)</tspan></text><text transform="translate(165.8 220.8)" stroke="none" fill="#000" font-family="Helvetica" font-size="20" text-anchor="middle"><tspan>Weak Allee Effect</tspan></text></g><a><path d="m51 298.9 2.3-.1 2.3-.2 2.4-.1 2.3-.2 2.3-.2 2.3-.2 2.3-.2 2.4-.2 2.3-.3 2.3-.3 2.3-.4 2.3-.3 2.3-.5 2.4-.4 2.3-.5 2.3-.6 2.3-.6 2.3-.6 2.4-.7 2.3-.7 2.3-.8 2.3-.8 2.3-.9 2.4-.9 2.3-.9 2.3-1 2.3-1 2.3-1.1 2.4-1.1 2.3-1.1 2.3-1.2 2.3-1.2 2.3-1.2 2.4-1.2 2.3-1.3 2.3-1.2 2.3-1.3 2.3-1.3 2.3-1.2 2.4-1.3 2.3-1.2 2.3-1.2 2.3-1.2 2.3-1.2 2.4-1.1 2.3-1 2.3-1.1 2.3-.9 2.3-.9 2.4-.8 2.3-.7 2.3-.7 2.3-.5 2.3-.4 2.4-.3 2.3-.1 2.3-.1 2.3.2 2.3.3 2.4.5 2.3.6 2.3.9 2.3 1 2.3 1.3 2.3 1.5 2.4 1.8 2.3 2 2.3 2.3 2.3 2.5 2.3 2.9 2.4 3.1 2.3 3.5 2.3 3.9 2.3 4.2 2.3 4.5 2.4 5 2.3 5.3 2.3 5.7 2.3 6.2 2.3 6.7 2.4 7.1 2.3 7.5 2.3 8.1 2.3 8.6.8 3.2" fill="none" color="red" stroke="currentColor" stroke-width="2"/></a><g fill="none" color="#000" stroke="currentColor"><path d="M51 241.3v115.3m0 138.2h8.2"/><text transform="translate(43.3 498.9)" stroke="none" fill="#000" font-family="helvetica" font-size="11pt" text-anchor="end"><tspan>0</tspan></text><path d="M227.6 494.8v8.2"/><text transform="translate(227.6 523.5)" stroke="none" fill="#000" font-family="helvetica" font-size="11pt" text-anchor="middle"><tspan>K</tspan></text></g><path d="M51 494.8h229.6" fill="none" color="gray" stroke="currentColor"/><g fill="none" color="#000" stroke="currentColor"><path d="M51 439.2v111.2m0-111.2"/><text transform="rotate(-90 259.3 235.5)" stroke="none" fill="#000" font-family="helvetica" font-size="11pt" text-anchor="middle"><tspan>Proliferation rate (dN/dt)</tspan></text><text transform="translate(165.8 562.7)" stroke="none" fill="#000" font-family="helvetica" font-size="11pt" text-anchor="middle"><tspan>Abundance (N)</tspan></text><text transform="translate(165.8 418.7)" stroke="none" fill="#000" font-family="Helvetica" font-size="20" text-anchor="middle"><tspan>No Allee Effect</tspan></text></g><a><path d="m51 494.8 2.3-2.4 2.3-2.3 2.4-2.3 2.3-2.2 2.3-2.2 2.3-2.1 2.3-2 2.4-1.9 2.3-1.9 2.3-1.8 2.3-1.8 2.3-1.7 2.3-1.6 2.4-1.6 2.3-1.5 2.3-1.5 2.3-1.3 2.3-1.4 2.4-1.2 2.3-1.2 2.3-1.1 2.3-1.1 2.3-1 2.4-.9 2.3-.9 2.3-.8 2.3-.7 2.3-.7 2.4-.6 2.3-.5 2.3-.5 2.3-.5 2.3-.3 2.4-.3 2.3-.2 2.3-.2 2.3-.1h4.6l2.4.1 2.3.1 2.3.3 2.3.2 2.3.4 2.4.4 2.3.5 2.3.5 2.3.6 2.3.7 2.4.7 2.3.8 2.3.9 2.3.9 2.3 1 2.4 1 2.3 1.1 2.3 1.2 2.3 1.3 2.3 1.3 2.4 1.3 2.3 1.5 2.3 1.5 2.3 1.5 2.3 1.6 2.3 1.7 2.4 1.8 2.3 1.8 2.3 1.9 2.3 1.9 2.3 2 2.4 2.1 2.3 2.1 2.3 2.2 2.3 2.3 2.3 2.3 2.4 2.4 2.3 2.5 2.3 2.5 2.3 2.6 2.3 2.6 2.4 2.7 2.3 2.8 2.3 2.9 2.3 2.9 2.3 2.9 2.4 3.1 2.3 3.1 2.3 3.1 2.3 3.2 2.3 3.3 2.3 3.4 2.4 3.4 2.3 3.5 2.3 3.5 1.3 2" fill="none" color="red" stroke="currentColor" stroke-width="2"/></a><path d="M51 439.2v111.2m0-111.2" fill="none" color="#000" stroke="currentColor"/></svg>

<svg xmlns="http://www.w3.org/2000/svg" xmlns:xlink="http://www.w3.org/1999/xlink" width="300" height="600" viewBox="0 0 300 600"><desc>Produced by GNUPLOT 4.4 patchlevel 0</desc><defs><circle id="gpDot" r=".5" stroke-width=".5"/><path id="gpPt0" stroke="currentColor" stroke-width=".244" d="M-1,0 h2 M0,-1 v2"/><path id="gpPt1" stroke="currentColor" stroke-width=".244" d="M-1,-1 L1,1 M1,-1 L-1,1"/><path id="gpPt2" stroke="currentColor" stroke-width=".244" d="M-1,0 L1,0 M0,-1 L0,1 M-1,-1 L1,1 M-1,1 L1,-1"/><rect id="gpPt3" width="2" height="2" x="-1" y="-1" stroke="currentColor" stroke-width=".244"/><rect id="gpPt4" width="2" height="2" x="-1" y="-1" fill="currentColor" stroke="currentColor" stroke-width=".244"/><circle id="gpPt5" cx="0" cy="0" r="1" stroke="currentColor" stroke-width=".244"/><use id="gpPt6" fill="currentColor" stroke="none" xlink:href="#gpPt5"/><path id="gpPt7" stroke="currentColor" stroke-width=".244" d="M0,-1.33 L-1.33,0.67 L1.33,0.67 z"/><use id="gpPt8" fill="currentColor" stroke="none" xlink:href="#gpPt7"/><use id="gpPt9" stroke="currentColor" transform="rotate(180)" xlink:href="#gpPt7"/><use id="gpPt10" fill="currentColor" stroke="none" xlink:href="#gpPt9"/><use id="gpPt11" stroke="currentColor" transform="rotate(45)" xlink:href="#gpPt3"/><use id="gpPt12" fill="currentColor" stroke="none" xlink:href="#gpPt11"/></defs><g style="fill:none;color:#000;stroke:currentColor;stroke-width:1;stroke-linecap:butt;stroke-linejoin:miter"><path d="M51.0,100.9 L59.2,100.9"/><g style="stroke:none;fill:#000;font-family:helvetica;font-size:11pt;text-anchor:end"><text transform="translate(43.3,105.0)"><tspan>0</tspan></text></g><path d="M227.6,100.9 L227.6,109.1"/><g style="stroke:none;fill:#000;font-family:helvetica;font-size:11pt;text-anchor:middle"><text transform="translate(227.6,129.6)"><tspan>K</tspan></text></g></g><g style="fill:none;color:gray;stroke:currentColor;stroke-width:1;stroke-linecap:butt;stroke-linejoin:miter"><path d="M51.0,100.9 L280.6,100.9"/></g><g style="fill:none;color:#000;stroke:currentColor;stroke-width:1;stroke-linecap:butt;stroke-linejoin:miter"><path d="M51.0,43.3 L51.0,158.6 M280.6,158.6 M280.6,43.3 M51.0,43.3"/><g style="stroke:none;fill:#000;font-family:helvetica;font-size:11pt;text-anchor:middle"><text transform="translate(23.8,101.0) rotate(270)"><tspan>Proliferation rate (dN/dt)</tspan></text></g><g style="stroke:none;fill:#000;font-family:Helvetica;font-size:15pt;text-anchor:middle"><text transform="translate(165.8,22.8)"><tspan>Strong Allee Effect</tspan></text></g></g><a xlink:title="Plot #1"><g style="fill:none;color:red;stroke:currentColor;stroke-width:2;stroke-linecap:butt;stroke-linejoin:miter"><path d="M51.0,100.9 L53.3,102.4 L55.6,103.6 L58.0,104.7 L60.3,105.7 L62.6,106.5 L64.9,107.1 L67.2,107.6 L69.6,108.0 L71.9,108.2 L74.2,108.3 L76.5,108.3 L78.8,108.2 L81.1,108.0 L83.5,107.6 L85.8,107.2 L88.1,106.7 L90.4,106.1 L92.7,105.4 L95.1,104.6 L97.4,103.7 L99.7,102.8 L102.0,101.8 L104.3,100.8 L106.7,99.7 L109.0,98.6 L111.3,97.4 L113.6,96.2 L115.9,94.9 L118.3,93.6 L120.6,92.3 L122.9,91.0 L125.2,89.7 L127.5,88.4 L129.9,87.0 L132.2,85.7 L134.5,84.4 L136.8,83.1 L139.1,81.8 L141.4,80.6 L143.8,79.4 L146.1,78.2 L148.4,77.0 L150.7,75.9 L153.0,74.9 L155.4,73.9 L157.7,73.0 L160.0,72.1 L162.3,71.4 L164.6,70.7 L167.0,70.0 L169.3,69.5 L171.6,69.1 L173.9,68.7 L176.2,68.5 L178.6,68.4 L180.9,68.4 L183.2,68.5 L185.5,68.7 L187.8,69.1 L190.2,69.6 L192.5,70.3 L194.8,71.0 L197.1,72.0 L199.4,73.1 L201.7,74.4 L204.1,75.8 L206.4,77.4 L208.7,79.2 L211.0,81.1 L213.3,83.3 L215.7,85.6 L218.0,88.2 L220.3,90.9 L222.6,93.9 L224.9,97.0 L227.3,100.4 L229.6,104.0 L231.9,107.9 L234.2,111.9 L236.5,116.3 L238.9,120.8 L241.2,125.6 L243.5,130.7 L245.8,136.0 L248.1,141.6 L250.5,147.5 L252.8,153.6 L254.6,158.6"/></g></a><g style="fill:none;color:#000;stroke:currentColor;stroke-width:1;stroke-linecap:butt;stroke-linejoin:miter"><path d="M51.0,43.3 L51.0,158.6 M280.6,158.6 M280.6,43.3 M51.0,43.3 M51.0,298.9 L59.2,298.9"/><g style="stroke:none;fill:#000;font-family:helvetica;font-size:11pt;text-anchor:end"><text transform="translate(43.3,303.0)"><tspan>0</tspan></text></g><path d="M227.6,298.9 L227.6,307.1"/><g style="stroke:none;fill:#000;font-family:helvetica;font-size:11pt;text-anchor:middle"><text transform="translate(227.6,327.6)"><tspan>K</tspan></text></g></g><g style="fill:none;color:gray;stroke:currentColor;stroke-width:1;stroke-linecap:butt;stroke-linejoin:miter"><path d="M51.0,298.9 L280.6,298.9"/></g><g style="fill:none;color:#000;stroke:currentColor;stroke-width:1;stroke-linecap:butt;stroke-linejoin:miter"><path d="M51.0,241.3 L51.0,356.6 M280.6,356.6 M280.6,241.3 M51.0,241.3"/><g style="stroke:none;fill:#000;font-family:helvetica;font-size:11pt;text-anchor:middle"><text transform="translate(23.8,299.0) rotate(270)"><tspan>Proliferation rate (dN/dt)</tspan></text></g><g style="stroke:none;fill:#000;font-family:Helvetica;font-size:15pt;text-anchor:middle"><text transform="translate(165.8,220.8)"><tspan>Weak Allee Effect</tspan></text></g></g><a xlink:title="Plot #1"><g style="fill:none;color:red;stroke:currentColor;stroke-width:2;stroke-linecap:butt;stroke-linejoin:miter"><path d="M51.0,298.9 L53.3,298.8 L55.6,298.6 L58.0,298.5 L60.3,298.3 L62.6,298.1 L64.9,297.9 L67.2,297.7 L69.6,297.5 L71.9,297.2 L74.2,296.9 L76.5,296.5 L78.8,296.2 L81.1,295.7 L83.5,295.3 L85.8,294.8 L88.1,294.2 L90.4,293.6 L92.7,293.0 L95.1,292.3 L97.4,291.6 L99.7,290.8 L102.0,290.0 L104.3,289.1 L106.7,288.2 L109.0,287.3 L111.3,286.3 L113.6,285.3 L115.9,284.2 L118.3,283.1 L120.6,282.0 L122.9,280.8 L125.2,279.6 L127.5,278.4 L129.9,277.2 L132.2,275.9 L134.5,274.7 L136.8,273.4 L139.1,272.1 L141.4,270.9 L143.8,269.6 L146.1,268.4 L148.4,267.2 L150.7,266.0 L153.0,264.8 L155.4,263.7 L157.7,262.7 L160.0,261.6 L162.3,260.7 L164.6,259.8 L167.0,259.0 L169.3,258.3 L171.6,257.6 L173.9,257.1 L176.2,256.7 L178.6,256.4 L180.9,256.3 L183.2,256.2 L185.5,256.4 L187.8,256.7 L190.2,257.2 L192.5,257.8 L194.8,258.7 L197.1,259.7 L199.4,261.0 L201.7,262.5 L204.1,264.3 L206.4,266.3 L208.7,268.6 L211.0,271.1 L213.3,274.0 L215.7,277.1 L218.0,280.6 L220.3,284.5 L222.6,288.7 L224.9,293.2 L227.3,298.2 L229.6,303.5 L231.9,309.2 L234.2,315.4 L236.5,322.1 L238.9,329.2 L241.2,336.7 L243.5,344.8 L245.8,353.4 L246.6,356.6"/></g></a><g style="fill:none;color:#000;stroke:currentColor;stroke-width:1;stroke-linecap:butt;stroke-linejoin:miter"><path d="M51.0,241.3 L51.0,356.6 M280.6,356.6 M280.6,241.3 M51.0,241.3 M51.0,494.8 L59.2,494.8"/><g style="stroke:none;fill:#000;font-family:helvetica;font-size:11pt;text-anchor:end"><text transform="translate(43.3,498.9)"><tspan>0</tspan></text></g><path d="M227.6,494.8 L227.6,503.0"/><g style="stroke:none;fill:#000;font-family:helvetica;font-size:11pt;text-anchor:middle"><text transform="translate(227.6,523.5)"><tspan>K</tspan></text></g></g><g style="fill:none;color:gray;stroke:currentColor;stroke-width:1;stroke-linecap:butt;stroke-linejoin:miter"><path d="M51.0,494.8 L280.6,494.8"/></g><g style="fill:none;color:#000;stroke:currentColor;stroke-width:1;stroke-linecap:butt;stroke-linejoin:miter"><path d="M51.0,439.2 L51.0,550.4 M280.6,550.4 M280.6,439.2 M51.0,439.2"/><g style="stroke:none;fill:#000;font-family:helvetica;font-size:11pt;text-anchor:middle"><text transform="translate(23.8,494.8) rotate(270)"><tspan>Proliferation rate (dN/dt)</tspan></text></g><g style="stroke:none;fill:#000;font-family:helvetica;font-size:11pt;text-anchor:middle"><text transform="translate(165.8,562.7)"><tspan>Abundance (N)</tspan></text></g><g style="stroke:none;fill:#000;font-family:Helvetica;font-size:15pt;text-anchor:middle"><text transform="translate(165.8,418.7)"><tspan>No Allee Effect</tspan></text></g></g><a xlink:title="Plot #1"><g style="fill:none;color:red;stroke:currentColor;stroke-width:2;stroke-linecap:butt;stroke-linejoin:miter"><path d="M51.0,494.8 L53.3,492.4 L55.6,490.1 L58.0,487.8 L60.3,485.6 L62.6,483.4 L64.9,481.3 L67.2,479.3 L69.6,477.4 L71.9,475.5 L74.2,473.7 L76.5,471.9 L78.8,470.2 L81.1,468.6 L83.5,467.0 L85.8,465.5 L88.1,464.0 L90.4,462.7 L92.7,461.3 L95.1,460.1 L97.4,458.9 L99.7,457.8 L102.0,456.7 L104.3,455.7 L106.7,454.8 L109.0,453.9 L111.3,453.1 L113.6,452.4 L115.9,451.7 L118.3,451.1 L120.6,450.6 L122.9,450.1 L125.2,449.6 L127.5,449.3 L129.9,449.0 L132.2,448.8 L134.5,448.6 L136.8,448.5 L139.1,448.5 L141.4,448.5 L143.8,448.6 L146.1,448.7 L148.4,449.0 L150.7,449.2 L153.0,449.6 L155.4,450.0 L157.7,450.5 L160.0,451.0 L162.3,451.6 L164.6,452.3 L167.0,453.0 L169.3,453.8 L171.6,454.7 L173.9,455.6 L176.2,456.6 L178.6,457.6 L180.9,458.7 L183.2,459.9 L185.5,461.2 L187.8,462.5 L190.2,463.8 L192.5,465.3 L194.8,466.8 L197.1,468.3 L199.4,469.9 L201.7,471.6 L204.1,473.4 L206.4,475.2 L208.7,477.1 L211.0,479.0 L213.3,481.0 L215.7,483.1 L218.0,485.2 L220.3,487.4 L222.6,489.7 L224.9,492.0 L227.3,494.4 L229.6,496.9 L231.9,499.4 L234.2,502.0 L236.5,504.6 L238.9,507.3 L241.2,510.1 L243.5,513.0 L245.8,515.9 L248.1,518.8 L250.5,521.9 L252.8,525.0 L255.1,528.1 L257.4,531.3 L259.7,534.6 L262.0,538.0 L264.4,541.4 L266.7,544.9 L269.0,548.4 L270.3,550.4"/></g></a><g style="fill:none;color:#000;stroke:currentColor;stroke-width:1;stroke-linecap:butt;stroke-linejoin:miter"><path d="M51.0,439.2 L51.0,550.4 M280.6,550.4 M280.6,439.2 M51.0,439.2"/></g></svg>
